loleaflet/images/lc_styleapply3fstyle3astring3dstandard26familyname3astring3dparagraphstyles.svg

<svg height="24" viewBox="0 0 24 24" width="24" xmlns="http://www.w3.org/2000/svg"><path d="m10.898438 4-5.898438 16h1.6875c.1834758 0 .3391615-.05267.4667969-.158203.1356125-.10553.2275273-.227232.2753906-.365235l1.203125-3.476562h6.7343755l1.214843 3.488281c.06382.146119.151991.267822.263672.365235.119658.09741.275344.146484.466797.146484h1.6875l-5.886719-16zm1.101562 2.09375 2.671875 7.90625h-5.34375l2.205078-6.3710938c.07179-.1948249.146791-.4218736.226563-.6816406.079772-.2597669.160462-.5450426.240234-.8535156z" fill="#3a3a38"/></svg>

<?xml version="1.0" encoding="UTF-8" standalone="no"?>
<svg
   xmlns:dc="http://purl.org/dc/elements/1.1/"
   xmlns:cc="http://creativecommons.org/ns#"
   xmlns:rdf="http://www.w3.org/1999/02/22-rdf-syntax-ns#"
   xmlns:svg="http://www.w3.org/2000/svg"
   xmlns="http://www.w3.org/2000/svg"
   xmlns:sodipodi="http://sodipodi.sourceforge.net/DTD/sodipodi-0.dtd"
   xmlns:inkscape="http://www.inkscape.org/namespaces/inkscape"
   viewBox="0 0 24 24"
   version="1.1"
   id="svg4"
   sodipodi:docname="lc_styleapply3fstyle3astring3dstandard26familyname3astring3dparagraphstyles.svg"
   width="24"
   height="24"
   inkscape:version="0.92.5 (2060ec1f9f, 2020-04-08)">
  <metadata
     id="metadata10">
    <rdf:RDF>
      <cc:Work
         rdf:about="">
        <dc:format>image/svg+xml</dc:format>
        <dc:type
           rdf:resource="http://purl.org/dc/dcmitype/StillImage" />
        <dc:title></dc:title>
      </cc:Work>
    </rdf:RDF>
  </metadata>
  <defs
     id="defs8" />
  <sodipodi:namedview
     pagecolor="#ffffff"
     bordercolor="#666666"
     borderopacity="1"
     objecttolerance="10"
     gridtolerance="10"
     guidetolerance="10"
     inkscape:pageopacity="0"
     inkscape:pageshadow="2"
     inkscape:window-width="1366"
     inkscape:window-height="700"
     id="namedview6"
     showgrid="true"
     inkscape:zoom="41.7193"
     inkscape:cx="10.450918"
     inkscape:cy="7.266504"
     inkscape:window-x="0"
     inkscape:window-y="0"
     inkscape:window-maximized="1"
     inkscape:current-layer="svg4">
    <inkscape:grid
       type="xygrid"
       id="grid817" />
  </sodipodi:namedview>
  <path
     style="fill:#3a3a38"
     d="M 10.898438 4 L 5 20 L 6.6875 20 C 6.8709758 20 7.0266615 19.94733 7.1542969 19.841797 C 7.2899094 19.736267 7.3818242 19.614565 7.4296875 19.476562 L 8.6328125 16 L 15.367188 16 L 16.582031 19.488281 C 16.645851 19.6344 16.734022 19.756103 16.845703 19.853516 C 16.965361 19.950926 17.121047 20 17.3125 20 L 19 20 L 13.113281 4 L 10.898438 4 z M 12 6.09375 L 14.671875 14 L 9.328125 14 L 11.533203 7.6289062 C 11.604993 7.4340813 11.679994 7.2070326 11.759766 6.9472656 C 11.839538 6.6874987 11.920228 6.402223 12 6.09375 z "
     id="path2" />
</svg>
